assets/icons/navbar_messages_filled.svg

<svg width="25" height="25" viewBox="0 0 25 25" fill="none" xmlns="http://www.w3.org/2000/svg">
<path d="M10.35 2.42993H14.65C18.7041 2.42993 20.7311 2.42993 21.9906 3.694C23.25 4.95806 23.25 6.99254 23.25 11.0615V11.601C23.25 15.6699 23.25 17.7044 21.9906 18.9685C20.7311 20.2325 18.7041 20.2325 14.65 20.2325C14.0475 20.246 13.5676 20.292 13.0962 20.3998C12.0124 20.6502 10.9961 21.1582 9.99881 21.6567C9.81077 21.7507 9.62311 21.8445 9.43611 21.9361C7.75633 22.7581 6.91645 23.1692 6.38937 22.7844C5.88644 22.4084 5.86431 21.6993 6.0044 20.915C6.06226 20.5911 6.0912 20.4291 6.02074 20.3273C5.95029 20.2256 5.78808 20.1957 5.46365 20.1357C4.40736 19.9406 3.59038 19.5515 3.00944 18.9685C1.75 17.7044 1.75 15.6699 1.75 11.601V11.0615C1.75 6.99254 1.75 4.95806 3.00944 3.694C4.26888 2.42993 6.29592 2.42993 10.35 2.42993Z" fill="white"/>
</svg>

<svg xmlns="http://www.w3.org/2000/svg" width="25" height="25" fill="none" viewBox="0 0 25 25"><path fill="#fff" d="M10.35 2.43h4.3c4.054 0 6.081 0 7.34 1.264 1.26 1.264 1.26 3.299 1.26 7.368v.539c0 4.069 0 6.103-1.26 7.367-1.259 1.265-3.286 1.265-7.34 1.265-.603.013-1.082.059-1.554.167-1.084.25-2.1.758-3.097 1.257l-.563.28c-1.68.821-2.52 1.232-3.047.847-.503-.376-.525-1.085-.385-1.869.058-.324.087-.486.017-.588s-.233-.131-.557-.191q-1.584-.292-2.455-1.168C1.75 17.705 1.75 15.67 1.75 11.601v-.54c0-4.068 0-6.103 1.26-7.367C4.268 2.43 6.295 2.43 10.35 2.43"/></svg>
